!!!COM: Fanny (Mendelssohn) Hensel
!!!CNT: Deutsch
!!!TXO: Deutsch
!!!OTL: "Fichtenbaum und Palme"
!!!LYR: Heine, Heinrich
!!!OPR: 
!!!OPS: Op. 
!!!ONM: No. 
!!!ENC: Emily Thomas
!!!YOR: Hensel: Ausgewa2hlte Lieder fu2r Singstimme und Klavier
!!!YOR: Breitkopf & Hartel, 1994 vol. 2
!!!ODT: 1838/
!!NB: Vocal melody and text encoded.
**kern	**silbe
=0-	=0
*clefG2	*
*k[b-e-a-]	*
*M4/4	*
*MM[Lento]	*
1r	.
=1	=1
2r	.
4r	.
8r	.
{8B-	{Ein
=2	=2
8e-	Fich-
8e-	-ten-
8e-	-baum
8f	steht
4g	ein-
8g	-sam
8g	im
=3	=3
8g	Nor-
16f	-den
16f	auf
8e-	kah-
8f	-ler
4g}	Ho2h.}
8r	.
{8g	{Ihn
=4	=4
4cc	schla2-
8g	-fert;
8an	mit
4b-	wei-
8e-	|
8f	-sser
=5	=5
4.g-	Dek-
8f	|
4e-}	-ke}
8r	.
{8c	{um-
=6	=6
4gn	-hu2l-
8g	-len
8g	ihn
4.g	Eis
8g	und
=7	=7
4c}	Schnee,}
8r	.
{8B-	{mit
4.e-	wei-
8e-	-sser
=8	=8
4e-	Dek-
8e-	-ke
8e-	um-
8e-	-hu2l-
16e-	-len
16e-	ihn
8e-	Eis
8e-	und
=9	=9
4e-}	Schnee.}
4r	.
*k[f#c#g#d#a#]	*
2r	.
=10	=10
*M2/4	*
2r	.
=11	=11
2r	.
=12	=12
2r	.
=13	=13
4r	.
8r	.
{8f#	{Er
=14	=14
8dd#	tra2umt
16r	.
16dd#	von
8ddn	ei-
16r	.
16ddn	-ner
=15	=15
4cc#	pal-
8f#}	-me,}
16r	.
{16f#	{die,
=16	=16
8b	fern
16r	.
16b	im
8.ee	Mor-
32ddn	-gen-
32ccn	|
=17	=17
4b}	-land,}
4r	.
=18	=18
{8dd#	{ein-
16ccn	-sam
16b	und
8b	schwei-
8b	-gend
=19	=19
16.b	trau-
32gn	|
8e}	-ert}
8r	.
{8e	{auf
=20	=20
8dd#	bren-
16ccn	-nen-
16b	-der
8b	Fel-
8b	-sen-
=21	=21
4.b	wand,
16a#	|
16g#}	|}
=22	=22
{8cc#	{ein-
16b	-sam
16a#	und
16a#	schwei-
16g#	|
16e#	-gend
16c#	|
=23	=23
[2cc#	trau-
=24	=24
8cc#]	|
16ee	|
16cc#	|
16a#	|
16gn	|
16f#	-ert
16e	auf
=25	=25
8d#	bren-
4ccn	|
16b	-nen-
16an	-der
=26	=26
8an	Fel-
4gn	|
16anq	|
16gnq	|
16f#	|
16e	-sen-
=27	=27
4b}	-wand.}
8r	.
{8e-	{Er
=28	=28
*k[b-e-a-]	*
*M4/4	*
4e-	tra2umt
16r	.
16e-	von
16a-	ei-
16cc-	-ner
16b-	Pal-
16g	|
8e-}	-me,}
8r	.
{8e-	{die,
=29	=29
8ee-	fern
16r	.
16e-	im
8d-	Mor-
16cc-	-gen-
16a-	|
4b-}	-land,}
4r	.
=30	=30
{8ff-	{ein-
16dd-	-sam
16cc-	und
16cc-	schwei-
16b-	|
16a-	-gend
16g	|
8b-	trau-
8a-	-ert
8r	.
8a-	auf
=31	=31
8cc-	bren-
16a-	-nen-
16g-	-der
16g-	Fel-
16f	|
16e-	-sen-
16d	|
4e-}	wand,}
8r	.
{8e-	{auf
=32	=32
8g	bren-
16e-	-nen-
16e-	-der
8g	Fel-
8b-	-sen-
4ee-}	-wand.}
4r	.
==	==
*-	*-
